svg/s/BQ-SE.svg

<svg width="16" height="12" viewBox="0 0 16 12" fill="none" xmlns="http://www.w3.org/2000/svg">
<g clip-path="url(#clip0_270_55188)">
<rect width="16" height="12" fill="white"/>
<path fill-rule="evenodd" clip-rule="evenodd" d="M0 0H16V12H0V0Z" fill="#00268D"/>
<path d="M0.5 0.5H15.5V11.5H0.5V0.5Z" fill="#00268D" stroke="#E31D1C"/>
<rect x="7.5" width="1" height="12" fill="#E31D1C"/>
<rect y="6.5" width="1" height="16" transform="rotate(-90 0 6.5)" fill="#E31D1C"/>
<path d="M4.82256 7.79999C5.00189 7.79999 13.75 7.79999 13.75 7.79999L12.8061 6.84288C12.8061 6.84288 10.9185 4.95038 10.7971 4.86364C10.6756 4.77691 10.4749 4.73948 10.2466 5.01514C10.0182 5.2908 9.88725 4.86364 9.69713 4.86364C9.50701 4.86364 9.42662 4.86364 9.15076 5.21733C8.8749 5.57101 7.88153 6.84288 7.88153 6.84288H6.42168C6.42168 6.84288 6.17542 6.63395 6.03507 6.7085C5.89472 6.78304 5.10415 5.88392 4.82256 5.81674C4.54096 5.74957 4.35568 6.06047 4.35568 6.30787C4.35568 6.55527 4.22317 6.08117 3.95374 6.22033C3.68431 6.3595 3.77118 6.7085 3.77118 6.7085C3.77118 6.7085 4.64322 7.79999 4.82256 7.79999Z" fill="#059334"/>
<path fill-rule="evenodd" clip-rule="evenodd" d="M7.00318 5.53415L6.38564 6L6.61224 5.23048L6 4.75943H6.76276L7.00318 4L7.25801 4.75943H8L7.39309 5.23048L7.62378 6L7.00318 5.53415Z" fill="#FEDA00"/>
</g>
<defs>
<clipPath id="clip0_270_55188">
<rect width="16" height="12" fill="white"/>
</clipPath>
</defs>
</svg>

<svg width="16" height="12" fill="none" xmlns="http://www.w3.org/2000/svg">
  <mask id="a" maskUnits="userSpaceOnUse" x="0" y="0" width="16" height="12">
    <path fill="#fff" d="M0 0h16v12H0z"/>
  </mask>
  <g mask="url(#a)">
    <path fill-rule="evenodd" clip-rule="evenodd" d="M0 0h16v12H0V0z" fill="#00268D"/>
    <path d="M.5.5h15v11H.5V.5z" fill="#00268D" stroke="#E31D1C"/>
    <path fill="#E31D1C" d="M7.5 0h1v12h-1z"/>
    <path fill="#E31D1C" d="M0 6.5v-1h16v1z"/>
    <path d="M8.257 2.571L8 2.417l-.257.154-5 3L2.028 6l.715.429 5 3L8 9.583l.257-.154 5-3L13.972 6l-.715-.429-5-3z" fill="#fff" stroke="#E31D1C"/>
    <mask id="b" maskUnits="userSpaceOnUse" x="1" y="1" width="14" height="10">
      <path d="M8.257 2.571L8 2.417l-.257.154-5 3L2.028 6l.715.429 5 3L8 9.583l.257-.154 5-3L13.972 6l-.715-.429-5-3z" fill="#fff" stroke="#fff"/>
    </mask>
    <g mask="url(#b)">
      <path d="M4.823 7.8h8.927l-.944-.957s-1.887-1.893-2.009-1.98c-.121-.086-.322-.124-.55.152-.229.276-.36-.151-.55-.151-.19 0-.27 0-.546.353L7.88 6.843H6.42s-.246-.21-.386-.135c-.14.075-.93-.824-1.212-.891-.282-.067-.467.243-.467.49 0 .248-.133-.226-.402-.087-.27.14-.183.489-.183.489S4.643 7.8 4.823 7.8z" fill="#059334"/>
      <path fill-rule="evenodd" clip-rule="evenodd" d="M7.003 5.534L6.386 6l.226-.77L6 4.76h.763l.24-.76.255.76H8l-.607.47.23.77-.62-.466z" fill="#FEDA00"/>
    </g>
  </g>
</svg>
